X:243
M:4/4
L:1/4
K:G
G | B B A d | c/B/ A/G/ A D | G/A/ B A G/F/ | G F/E/ F A | B e A d | G A/G/ F A | B ^c d G | F E D D | A A F E/D/ | G A B B |d d c/B/ A/G/ | c d e d | e d/c/ d G | c B/A/ B G | A G F G | c B !fermata!A !sintro!d | e d F G/A/ | B A/G/ !fermata!G !eintro!|]
